assets/themes/cycle_infra/Belgian_road_sign_D07.svg

<?xml version="1.0" encoding="UTF-8" standalone="yes"?>
<svg xmlns="http://www.w3.org/2000/svg" xmlns:xlink="http://www.w3.org/1999/xlink" width="375px" height="370px" viewBox="0 0 375 370" version="1.1">
  <g id="surface1">
    <path style="fill-rule:evenodd;fill:rgb(0%,44.313726%,70.19608%);fill-opacity:1;stroke-width:0.348;stroke-linecap:butt;stroke-linejoin:miter;stroke:rgb(0%,44.313726%,70.19608%);stroke-opacity:1;stroke-miterlimit:3.863;" d="M 39.742411 79.217658 C 9.329749 79.217658 -9.689995 46.296632 5.532667 19.92595 C 20.757004 -6.410367 58.762992 -6.410367 73.985654 19.92595 C 89.210829 46.296632 70.18941 79.217658 39.742411 79.217658 Z M 39.742411 79.217658 " transform="matrix(4.664355,0,0,4.660419,2.045235,0)"/>
    <path style="fill-rule:evenodd;fill:rgb(100%,100%,100%);fill-opacity:1;stroke-width:0.348;stroke-linecap:butt;stroke-linejoin:miter;stroke:rgb(100%,100%,100%);stroke-opacity:1;stroke-miterlimit:3.863;" d="M 39.742411 77.231181 C 10.82798 77.231181 -7.252124 45.947951 7.205092 20.900748 C 21.662308 -4.147293 57.821678 -4.147293 72.24372 20.900748 C 86.701774 45.947951 68.656006 77.231181 39.742411 77.231181 Z M 39.742411 77.231181 " transform="matrix(4.664355,0,0,4.660419,2.045235,0)"/>
    <path style="fill-rule:evenodd;fill:rgb(0%,44.313726%,70.19608%);fill-opacity:1;stroke-width:0.348;stroke-linecap:butt;stroke-linejoin:miter;stroke:rgb(0%,44.313726%,70.19608%);stroke-opacity:1;stroke-miterlimit:3.863;" d="M 39.742411 74.827294 C 12.708934 74.827294 -4.186153 45.564905 9.329749 22.120294 C 22.847325 -1.289952 56.672671 -1.289952 70.18941 22.120294 C 83.706987 45.564905 66.811063 74.827294 39.742411 74.827294 Z M 39.742411 74.827294 " transform="matrix(4.664355,0,0,4.660419,2.045235,0)"/>
    <path style="fill-rule:nonzero;fill:rgb(100%,100%,100%);fill-opacity:1;stroke-width:0.348;stroke-linecap:butt;stroke-linejoin:miter;stroke:rgb(100%,100%,100%);stroke-opacity:1;stroke-miterlimit:3.863;" d="M 29.396328 32.433207 L 39.394025 41.316193 C 39.011302 41.768808 38.766761 42.326194 38.766761 42.95315 C 38.766761 44.242264 39.847095 45.357038 41.065611 45.460971 L 41.065611 48.423084 L 40.682888 48.423084 L 40.682888 48.981309 L 41.971752 48.981309 L 41.971752 48.423084 L 41.589867 48.423084 L 41.589867 45.529702 C 42.809221 45.460133 43.715361 44.485335 43.888717 43.404926 L 45.316601 43.404926 C 45.490794 48.247067 49.462906 52.11441 54.340322 52.11441 C 59.35592 52.11441 63.431878 48.038361 63.431878 43.057084 C 63.431878 38.038926 59.35592 33.963716 54.340322 33.963716 C 52.842091 33.963716 51.411695 34.346762 50.158005 35.043286 L 47.614614 30.341121 L 48.241878 29.120737 C 48.417746 28.737691 48.938651 28.843301 49.254377 28.528985 C 49.287038 28.320279 49.287038 28.180304 49.287038 27.97076 C 49.112845 27.866826 49.077671 27.693324 48.835643 27.693324 L 45.489957 27.693324 C 45.454783 27.797258 45.315763 27.762054 45.212755 27.762054 C 45.178418 27.797258 45.143245 27.830785 45.108071 27.830785 C 45.037724 28.005963 45.037724 28.249034 45.108071 28.424213 C 45.143245 28.45774 45.212755 28.492943 45.282265 28.492943 L 46.989025 28.492943 C 47.163218 28.45774 47.339087 28.528147 47.511605 28.597715 C 47.580278 28.63208 47.580278 28.63208 47.650625 28.665607 C 47.616289 28.807259 47.756146 28.979923 47.685799 29.084695 L 47.338249 29.885991 L 29.988418 29.885991 L 30.475824 27.829946 C 30.859385 27.690809 31.172598 27.969922 31.974055 27.621241 C 32.287268 27.621241 33.019216 27.202991 33.925356 27.517307 C 34.098712 27.4469 33.855009 27.377332 33.958855 27.273398 C 33.855009 27.202991 34.098712 27.02865 34.064376 26.95992 C 33.506622 26.784741 32.356778 26.681646 31.834198 27.02865 C 31.277282 27.342128 30.510998 27.132584 30.022754 27.168626 L 28.315994 34.55463 C 27.34118 34.170745 26.225673 33.926836 25.075829 33.926836 C 20.095404 33.926836 16.018608 38.002884 16.018608 42.985 C 16.018608 48.00232 20.095404 52.042327 25.075829 52.042327 C 30.057928 52.042327 34.133886 48.00232 34.133886 42.985 C 34.133886 39.327202 31.938882 36.22679 28.839411 34.764174 Z M 29.396328 32.433207 " transform="matrix(4.664355,0,0,4.660419,2.045235,0)"/>
    <path style="fill:none;stroke-width:0.418;stroke-linecap:butt;stroke-linejoin:miter;stroke:rgb(100%,100%,100%);stroke-opacity:1;stroke-miterlimit:3.863;" d="M 23.612771 33.371964 C 24.136189 33.26803 24.622758 33.197623 25.075829 33.197623 C 30.475824 33.197623 34.829822 37.622353 34.829822 43.057084 C 34.829822 43.333681 34.829822 43.613632 34.796323 43.92711 " transform="matrix(4.664355,0,0,4.660419,2.045235,0)"/>
    <path style="fill-rule:evenodd;fill:rgb(100%,100%,100%);fill-opacity:1;stroke-width:0.348;stroke-linecap:butt;stroke-linejoin:miter;stroke:rgb(100%,100%,100%);stroke-opacity:1;stroke-miterlimit:3.863;" d="M 62.213362 52.531821 L 17.16929 52.531821 L 17.16929 51.869662 L 62.211687 51.869662 L 62.211687 52.531821 Z M 62.213362 52.531821 " transform="matrix(4.664355,0,0,4.660419,2.045235,0)"/>
    <path style=" stroke:none;fill-rule:nonzero;fill:rgb(0%,44.313726%,70.19608%);fill-opacity:1;" d="M 122.585938 195.304688 C 121.449219 194.65625 120.308594 194.820312 119.007812 194.820312 C 115.4375 194.820312 112.675781 197.582031 112.675781 200.828125 C 112.675781 204.234375 115.4375 206.992188 119.007812 206.992188 C 121.769531 206.992188 124.371094 205.042969 125.019531 202.617188 L 156.871094 202.617188 C 155.730469 222.582031 139.160156 238.332031 119.007812 238.332031 C 97.5625 238.332031 80.5 221.121094 80.5 200.175781 C 80.5 178.910156 97.5625 161.859375 119.007812 161.859375 C 123.882812 161.859375 128.757812 162.835938 133.308594 164.78125 L 130.707031 175.007812 C 129.246094 181.019531 127.300781 188 122.585938 195.304688 Z M 122.585938 195.304688 "/>
    <path style=" stroke:none;fill-rule:nonzero;fill:rgb(0%,44.313726%,70.19608%);fill-opacity:1;" d="M 137.535156 166.730469 L 134.121094 178.257812 C 132.496094 183.617188 128.597656 195.304688 125.183594 199.527344 C 125.511719 200.335938 125.019531 198.714844 125.183594 199.527344 L 157.195312 199.527344 C 156.707031 184.589844 149.882812 172.90625 137.535156 166.730469 Z M 137.535156 166.730469 "/>
    <path style=" stroke:none;fill-rule:nonzero;fill:rgb(0%,44.313726%,70.19608%);fill-opacity:1;" d="M 139.808594 148.546875 L 141.109375 141.890625 L 221.378906 141.890625 L 199.441406 189.460938 C 198.464844 189.132812 197.816406 187.832031 196.351562 188.160156 L 196.351562 175.828125 L 198.960938 175.828125 L 198.960938 172.089844 L 188.722656 172.089844 L 188.722656 175.828125 L 191.484375 175.828125 L 191.484375 188.492188 C 189.210938 188.976562 188.886719 188.652344 187.257812 190.113281 Z M 139.808594 148.546875 "/>
    <path style="fill-rule:nonzero;fill:rgb(0%,44.313726%,70.19608%);fill-opacity:1;stroke-width:0.348;stroke-linecap:butt;stroke-linejoin:miter;stroke:rgb(0%,44.313726%,70.19608%);stroke-opacity:1;stroke-miterlimit:3.863;" d="M 61.828126 39.468854 C 62.489726 40.617992 62.596085 41.628832 62.596085 43.057922 C 62.596085 47.551381 58.938023 51.208342 54.374658 51.208342 C 49.948638 51.208342 46.396097 47.935266 46.222741 43.579267 L 52.702234 43.579267 C 52.842929 44.414928 53.573201 45.077087 54.444168 45.077087 C 55.454155 45.077087 56.291623 43.996678 56.291623 43.057084 C 56.291623 42.673199 55.97841 42.673199 56.012746 42.673199 C 57.96321 41.593629 59.879338 40.549262 61.828126 39.468854 Z M 61.828126 39.468854 " transform="matrix(4.664355,0,0,4.660419,2.045235,0)"/>
    <path style=" stroke:none;fill-rule:nonzero;fill:rgb(0%,44.313726%,70.19608%);fill-opacity:1;" d="M 262.492188 194.820312 L 288.167969 180.535156 C 281.496094 169.65625 269.480469 162.351562 255.507812 162.351562 C 249.492188 162.351562 243.480469 163.652344 238.28125 166.410156 L 252.742188 192.550781 C 253.5625 192.222656 254.851562 191.898438 255.828125 191.898438 C 258.269531 191.898438 260.542969 193.191406 262.492188 194.820312 Z M 262.492188 194.820312 "/>
    <path style=" stroke:none;fill-rule:nonzero;fill:rgb(0%,44.313726%,70.19608%);fill-opacity:1;" d="M 235.1875 168.195312 L 250.136719 195.140625 C 248.675781 196.441406 248.023438 197.253906 247.707031 199.363281 L 217.316406 199.363281 C 217.808594 185.890625 224.46875 174.6875 235.1875 168.195312 Z M 235.1875 168.195312 "/>
    <path style=" stroke:none;fill-rule:nonzero;fill:rgb(0%,44.313726%,70.19608%);fill-opacity:1;" d="M 223.820312 146.117188 L 202.367188 191.574219 C 204.972656 192.550781 207.402344 195.636719 207.566406 199.53125 L 212.277344 199.367188 C 212.765625 184.59375 220.238281 171.28125 232.101562 164.136719 Z M 223.820312 146.117188 "/>
    <path style="fill:none;stroke-width:0.418;stroke-linecap:butt;stroke-linejoin:miter;stroke:rgb(100%,100%,100%);stroke-opacity:1;stroke-miterlimit:3.863;" d="M 44.794858 44.485335 C 44.690174 43.996678 44.654163 43.50886 44.654163 43.057084 C 44.654163 37.620676 49.077671 33.197623 54.477667 33.197623 C 58.484115 33.197623 61.897636 35.602349 63.431041 39.050604 " transform="matrix(4.664355,0,0,4.660419,2.045235,0)"/>
  </g>
</svg>

<?xml version="1.0" encoding="utf-8"?>
<!-- Generator: Adobe Illustrator 14.0.0, SVG Export Plug-In . SVG Version: 6.00 Build 43363)  -->
<!DOCTYPE svg PUBLIC "-//W3C//DTD SVG 1.1//EN" "http://www.w3.org/Graphics/SVG/1.1/DTD/svg11.dtd">
<svg version="1.1" id="Calque_1" xmlns="http://www.w3.org/2000/svg" x="0px" y="0px"
     width="79.52px" height="79.392px" viewBox="0 0 79.52 79.392" enable-background="new 0 0 79.52 79.392"
     xml:space="preserve">
<path fill-rule="evenodd" clip-rule="evenodd" fill="#0071B3" d="M39.742,79.218c-30.412,0-49.432-32.921-34.209-59.292
	c15.224-26.336,53.23-26.336,68.453,0C89.211,46.297,70.189,79.218,39.742,79.218z"/>
    <path fill="none" stroke="#0071B3" stroke-width="0.348" stroke-miterlimit="3.863" d="M39.742,79.218
	c-30.412,0-49.432-32.921-34.209-59.292c15.224-26.336,53.23-26.336,68.453,0C89.211,46.297,70.189,79.218,39.742,79.218z"/>
    <path fill-rule="evenodd" clip-rule="evenodd" fill="#FFFFFF" d="M39.742,77.231c-28.914,0-46.994-31.283-32.537-56.33
	c14.457-25.048,50.617-25.048,65.039,0C86.702,45.948,68.656,77.231,39.742,77.231z"/>
    <path fill="none" stroke="#FFFFFF" stroke-width="0.348" stroke-miterlimit="3.863" d="M39.742,77.231
	c-28.914,0-46.994-31.283-32.537-56.33c14.457-25.048,50.617-25.048,65.039,0C86.702,45.948,68.656,77.231,39.742,77.231z"/>
    <path fill-rule="evenodd" clip-rule="evenodd" fill="#0071B3" d="M39.742,74.827c-27.033,0-43.928-29.262-30.412-52.707
	c13.517-23.41,47.343-23.41,60.859,0C83.707,45.565,66.811,74.827,39.742,74.827z"/>
    <path fill="none" stroke="#0071B3" stroke-width="0.348" stroke-miterlimit="3.863" d="M39.742,74.827
	c-27.033,0-43.928-29.262-30.412-52.707c13.517-23.41,47.343-23.41,60.859,0C83.707,45.565,66.811,74.827,39.742,74.827z"/>
    <path fill="#FFFFFF" d="M29.396,32.433l9.998,8.883c-0.383,0.453-0.627,1.01-0.627,1.637c0,1.289,1.08,2.404,2.299,2.508v2.962
	h-0.383v0.558h1.289v-0.558H41.59V45.53c1.219-0.07,2.125-1.045,2.299-2.125h1.428c0.174,4.842,4.146,8.709,9.023,8.709
	c5.016,0,9.092-4.076,9.092-9.057c0-5.018-4.076-9.093-9.092-9.093c-1.498,0-2.928,0.383-4.182,1.079l-2.543-4.702l0.627-1.22
	c0.176-0.383,0.697-0.278,1.012-0.592c0.033-0.209,0.033-0.349,0.033-0.558c-0.174-0.104-0.209-0.278-0.451-0.278H45.49
	c-0.035,0.104-0.174,0.069-0.277,0.069c-0.035,0.035-0.07,0.069-0.105,0.069c-0.07,0.175-0.07,0.418,0,0.593
	c0.035,0.034,0.105,0.069,0.174,0.069h1.707c0.174-0.035,0.35,0.035,0.523,0.105c0.068,0.034,0.068,0.034,0.139,0.068
	c-0.035,0.141,0.105,0.314,0.035,0.419l-0.348,0.801h-17.35l0.488-2.056c0.383-0.139,0.697,0.14,1.498-0.209
	c0.313,0,1.045-0.418,1.951-0.104c0.174-0.07-0.07-0.14,0.034-0.244c-0.104-0.07,0.14-0.244,0.105-0.313
	c-0.557-0.175-1.707-0.278-2.23,0.069c-0.557,0.313-1.323,0.104-1.811,0.14l-1.707,7.386c-0.975-0.384-2.09-0.628-3.24-0.628
	c-4.981,0-9.057,4.076-9.057,9.058c0,5.017,4.076,9.057,9.057,9.057c4.982,0,9.058-4.04,9.058-9.057
	c0-3.658-2.195-6.758-5.295-8.221L29.396,32.433z"/>
    <path fill="none" stroke="#FFFFFF" stroke-width="0.348" stroke-miterlimit="3.863" d="M29.396,32.433l9.998,8.883
	c-0.383,0.453-0.627,1.01-0.627,1.637c0,1.289,1.08,2.404,2.299,2.508v2.962h-0.383v0.558h1.289v-0.558H41.59V45.53
	c1.219-0.07,2.125-1.045,2.299-2.125h1.428c0.174,4.842,4.146,8.709,9.023,8.709c5.016,0,9.092-4.076,9.092-9.057
	c0-5.018-4.076-9.093-9.092-9.093c-1.498,0-2.928,0.383-4.182,1.079l-2.543-4.702l0.627-1.22c0.176-0.383,0.697-0.278,1.012-0.592
	c0.033-0.209,0.033-0.349,0.033-0.558c-0.174-0.104-0.209-0.278-0.451-0.278H45.49c-0.035,0.104-0.174,0.069-0.277,0.069
	c-0.035,0.035-0.07,0.069-0.105,0.069c-0.07,0.175-0.07,0.418,0,0.593c0.035,0.034,0.105,0.069,0.174,0.069h1.707
	c0.174-0.035,0.35,0.035,0.523,0.105c0.068,0.034,0.068,0.034,0.139,0.068c-0.035,0.141,0.105,0.314,0.035,0.419l-0.348,0.801
	h-17.35l0.488-2.056c0.383-0.139,0.697,0.14,1.498-0.209c0.313,0,1.045-0.418,1.951-0.104c0.174-0.07-0.07-0.14,0.034-0.244
	c-0.104-0.07,0.14-0.244,0.105-0.313c-0.557-0.175-1.707-0.278-2.23,0.069c-0.557,0.313-1.323,0.104-1.811,0.14l-1.707,7.386
	c-0.975-0.384-2.09-0.628-3.24-0.628c-4.981,0-9.057,4.076-9.057,9.058c0,5.017,4.076,9.057,9.057,9.057
	c4.982,0,9.058-4.04,9.058-9.057c0-3.658-2.195-6.758-5.295-8.221L29.396,32.433z"/>
    <path fill="none" stroke="#FFFFFF" stroke-width="0.418" stroke-miterlimit="3.863" d="M23.613,33.372
	c0.523-0.104,1.01-0.174,1.463-0.174c5.4,0,9.754,4.424,9.754,9.859c0,0.277,0,0.557-0.034,0.87"/>
    <path fill-rule="evenodd" clip-rule="evenodd" fill="#FFFFFF"
          d="M17.168,52.532 M62.213,52.532H17.169V51.87h45.043V52.532z"/>
    <path fill="none" stroke="#FFFFFF" stroke-width="0.348" stroke-miterlimit="3.863" d="M17.168,52.532 M62.213,52.532H17.169V51.87
	h45.043V52.532z"/>
    <path fill="#0071B3" d="M25.843,41.907c-0.244-0.139-0.488-0.104-0.767-0.104c-0.766,0-1.358,0.593-1.358,1.289
	c0,0.731,0.592,1.323,1.358,1.323c0.592,0,1.15-0.418,1.289-0.939h6.828c-0.244,4.284-3.797,7.664-8.117,7.664
	c-4.598,0-8.256-3.693-8.256-8.188c0-4.563,3.658-8.221,8.256-8.221c1.045,0,2.09,0.209,3.066,0.627l-0.558,2.194
	C27.271,38.842,26.854,40.34,25.843,41.907z"/>
    <path fill="none" stroke="#0071B3" stroke-width="0" stroke-miterlimit="3.863" d="M25.843,41.907
	c-0.244-0.139-0.488-0.104-0.767-0.104c-0.766,0-1.358,0.593-1.358,1.289c0,0.731,0.592,1.323,1.358,1.323
	c0.592,0,1.15-0.418,1.289-0.939h6.828c-0.244,4.284-3.797,7.664-8.117,7.664c-4.598,0-8.256-3.693-8.256-8.188
	c0-4.563,3.658-8.221,8.256-8.221c1.045,0,2.09,0.209,3.066,0.627l-0.558,2.194C27.271,38.842,26.854,40.34,25.843,41.907z"/>
    <path fill="#0071B3" d="M29.048,35.776l-0.732,2.473c-0.348,1.15-1.184,3.658-1.916,4.564c0.07,0.174-0.035-0.174,0,0h6.863
	C33.158,39.608,31.695,37.101,29.048,35.776z"/>
    <path fill="none" stroke="#0071B3" stroke-width="0" stroke-miterlimit="3.863" d="M29.048,35.776l-0.732,2.473
	c-0.348,1.15-1.184,3.658-1.916,4.564c0.07,0.174-0.035-0.174,0,0h6.863C33.158,39.608,31.695,37.101,29.048,35.776z"/>
    <path fill="#0071B3" d="M29.535,31.874l0.279-1.428h17.209L42.32,40.653c-0.209-0.07-0.348-0.349-0.662-0.279v-2.646h0.559v-0.802
	h-2.195v0.802h0.592v2.717c-0.487,0.104-0.557,0.035-0.906,0.348L29.535,31.874z"/>
    <path fill="none" stroke="#0071B3" stroke-width="0" stroke-miterlimit="3.863" d="M29.535,31.874l0.279-1.428h17.209L42.32,40.653
	c-0.209-0.07-0.348-0.349-0.662-0.279v-2.646h0.559v-0.802h-2.195v0.802h0.592v2.717c-0.487,0.104-0.557,0.035-0.906,0.348
	L29.535,31.874z"/>
    <path fill="#0071B3" d="M61.828,39.469c0.662,1.149,0.768,2.16,0.768,3.589c0,4.493-3.658,8.15-8.221,8.15
	c-4.426,0-7.979-3.273-8.152-7.629h6.479c0.141,0.836,0.871,1.498,1.742,1.498c1.01,0,1.848-1.08,1.848-2.02
	c0-0.384-0.314-0.384-0.279-0.384C57.963,41.594,59.879,40.549,61.828,39.469z"/>
    <path fill="none" stroke="#0071B3" stroke-width="0.348" stroke-miterlimit="3.863" d="M61.828,39.469
	c0.662,1.149,0.768,2.16,0.768,3.589c0,4.493-3.658,8.15-8.221,8.15c-4.426,0-7.979-3.273-8.152-7.629h6.479
	c0.141,0.836,0.871,1.498,1.742,1.498c1.01,0,1.848-1.08,1.848-2.02c0-0.384-0.314-0.384-0.279-0.384
	C57.963,41.594,59.879,40.549,61.828,39.469z"/>
    <path fill="#0071B3" d="M55.838,41.803l5.504-3.065c-1.43-2.334-4.006-3.902-7.002-3.902c-1.289,0-2.578,0.279-3.693,0.871
	l3.1,5.609c0.176-0.07,0.453-0.14,0.662-0.14C54.932,41.176,55.42,41.454,55.838,41.803z"/>
    <path fill="none" stroke="#0071B3" stroke-width="0" stroke-miterlimit="3.863" d="M55.838,41.803l5.504-3.065
	c-1.43-2.334-4.006-3.902-7.002-3.902c-1.289,0-2.578,0.279-3.693,0.871l3.1,5.609c0.176-0.07,0.453-0.14,0.662-0.14
	C54.932,41.176,55.42,41.454,55.838,41.803z"/>
    <path fill="#0071B3" d="M49.984,36.09l3.205,5.782c-0.313,0.279-0.453,0.453-0.521,0.906h-6.516
	C46.258,39.887,47.686,37.483,49.984,36.09z"/>
    <path fill="none" stroke="#0071B3" stroke-width="0" stroke-miterlimit="3.863" d="M49.984,36.09l3.205,5.782
	c-0.313,0.279-0.453,0.453-0.521,0.906h-6.516C46.258,39.887,47.686,37.483,49.984,36.09z"/>
    <path fill="#0071B3" d="M47.547,31.353l-4.6,9.754c0.559,0.209,1.08,0.871,1.115,1.707l1.01-0.035c0.105-3.17,1.707-6.027,4.25-7.56
	L47.547,31.353z"/>
    <path fill="none" stroke="#0071B3" stroke-width="0" stroke-miterlimit="3.863" d="M47.547,31.353l-4.6,9.754
	c0.559,0.209,1.08,0.871,1.115,1.707l1.01-0.035c0.105-3.17,1.707-6.027,4.25-7.56L47.547,31.353z"/>
    <path fill="none" stroke="#FFFFFF" stroke-width="0.418" stroke-miterlimit="3.863" d="M44.795,44.485
	c-0.105-0.488-0.141-0.976-0.141-1.428c0-5.436,4.424-9.859,9.824-9.859c4.006,0,7.42,2.404,8.953,5.853"/>
</svg>
